src/assets/community.svg

<?xml version="1.0" encoding="UTF-8"?>
<svg version="1.1" viewBox="0 0 400 400" xmlns="http://www.w3.org/2000/svg">
<path d="m48.112 76.931c-5.656 2.032-5.842 2.42-27.443 57.116-27.238 68.968-27.542 62.091 3.277 74.07 17.979 6.989 21.163 7.68 25.36 5.51l2.354-1.218 28.572 18.042-1.527 4.501c-4.587 13.514 4.154 26.931 18.756 28.79 3.577 0.455 4.102 0.746 4.102 2.279 0 7.891 10.741 17.546 19.541 17.565l3.526 8e-3 0.965 4.061c2.189 9.214 10.867 16.227 20.108 16.248 2.181 5e-3 2.437 0.321 3.677 4.544 2.748 9.35 10.845 15.208 21.034 15.216 7.564 6e-3 11.787-2.257 18.476-9.903l2.561-2.928 5.051 3.605c9.497 6.776 17.541 8.432 26.362 5.426 6.78-2.31 14.636-11.614 14.636-17.335 0-1.572 0.265-1.764 1.758-1.27 12.001 3.975 26.65-4.768 29.671-17.707l0.993-4.254 4.497-0.091c10.789-0.218 20.121-7.768 22.324-18.061 0.619-2.895 0.683-2.938 3.98-2.723 17.518 1.145 27.966-12.352 24.896-32.161-0.175-1.131 2.264-3.072 10.52-8.37l10.749-6.898 2.837 1.925c4.595 3.119 7.178 2.646 26.329-4.822 28.595-11.151 28.325-10.48 16.443-40.863-8.91-22.784-12.051-26.586-17.477-21.159-3.106 3.106-2.832 4.429 5.024 24.274 4.131 10.435 7.235 19.24 6.897 19.567-0.578 0.561-27.605 11.287-29.73 11.799-0.822 0.198-41.298-100.08-40.593-100.57 1.069-0.738 31.091-12.276 31.296-12.028 0.152 0.184 3.719 9.124 7.925 19.866 8.572 21.89 8.792 22.266 13.032 22.266 8.222 0 7.961-3.586-2.113-29.068-12.116-30.645-11.151-30.195-40.111-18.698-20.846 8.276-22.731 9.689-22.738 17.046-3e-3 3.256-0.014 3.268-4.495 4.954-18.435 6.935-21.32 7.286-37.888 4.612-11.091-1.791-12.855-1.459-14.786 2.778-2.458 5.397 0.736 7.685 13.608 9.75 17.352 2.784 22.975 2.24 39.375-3.809 4.637-1.71 8.565-2.975 8.729-2.811 0.773 0.773 32.802 82.83 32.512 83.298-0.999 1.617-23.935 15.537-24.768 15.032-0.529-0.321-11.801-8.576-25.048-18.343l-24.087-17.759-11.18 0.453c-20.834 0.844-35.415-4.624-51.648-19.368-8.092-7.35-15.099-8.391-21.284-3.162-21.685 18.336-36.171 23.139-48.364 16.035-6.596-3.843-6.26-5.325 2.557-11.274 12.417-8.379 24.896-18.733 43.023-35.695 14.249-13.333 13.666-13.163 33.941-9.908 14.192 2.278 16.413 1.863 17.01-3.18 0.748-6.324-0.136-6.839-16.066-9.366-22.131-3.51-26.336-2.542-39.475 9.091l-4.128 3.655-5.191-1.439c-7.727-2.143-17.134-3.093-35.397-3.576-17.965-0.475-20.708-0.888-29.101-4.381l-5.664-2.357v-3.09c0-7.473-2.141-9.068-23.263-17.336-19.423-7.602-20.561-7.897-24.719-6.403m19.983 18.072c8.31 3.267 15.19 6.015 15.29 6.106 0.671 0.613-39.725 100.81-40.576 100.65-3.337-0.648-29.918-11.792-29.918-12.542 0-1.444 39.004-100.13 39.579-100.14 0.285-6e-3 7.316 2.663 15.625 5.93m35.811 25.508c3.618 1.32 7.322 1.67 23.438 2.219 19.12 0.651 31.678 1.848 32.447 3.092 0.732 1.184-18.128 16.606-31.338 25.624-15.628 10.669-14.87 24.405 1.81 32.825 15.843 7.998 35.116 2.957 56.391-14.748 5.697-4.741 4.766-4.777 10.361 0.403 15.222 14.093 31.886 20.676 53.682 21.208l12.806 0.313 20.314 14.968c26.605 19.603 27.851 20.617 29.144 23.712 4.015 9.609-5.801 18.928-14.952 14.196-1.279-0.661-8.297-5.801-15.597-11.422-11.559-8.902-13.649-10.222-16.201-10.232-3.716-0.016-6.059 2.175-6.043 5.651 0.017 3.586 0.16 3.739 12.195 12.993 13.665 10.509 15.667 15.299 9.211 22.037-6.309 6.586-9.611 5.543-28.4-8.97-10.782-8.328-13.876-9.37-17.206-5.795-4.008 4.301-2.493 6.775 9.953 16.259 11.306 8.614 13.399 12.812 9.352 18.758-6.205 9.117-10.576 8.323-27.959-5.078-10.506-8.099-13.192-9.052-16.419-5.825-3.677 3.677-2.041 7.41 6.086 13.884 8.692 6.924 9.918 9.494 7.323 15.358-3.385 7.653-10.6 8.812-19.031 3.056-5.655-3.862-5.931-4.259-4.044-5.826 12.032-9.986 2.621-33.3-14.352-35.552l-4.01-0.532-1.169-4.02c-2.666-9.171-10.565-15.317-19.687-15.317-3.205 0-3.418-0.133-3.425-2.148-0.031-8.715-10.871-18.164-20.837-18.164-2.166 0-2.594-0.29-2.6-1.758-0.023-5.298-6.944-14.131-13.165-16.803-9.178-3.943-17.98-1.124-27.05 8.662-5.786 6.242-6.817 7.044-8.014 6.228-0.755-0.515-7.625-4.89-15.265-9.723-7.641-4.832-13.749-9.157-13.573-9.611 1.439-3.71 29.737-75.439 31.363-79.496l2.097-5.236 4.034 1.622c2.218 0.892 5.967 2.326 8.33 3.188m12.785 96.191c9.077 3.793 8.292 9.317-3.231 22.751-10.676 12.446-13.753 14.007-19.516 9.904-6.613-4.709-5.459-8.95 6.064-22.287 9.445-10.932 11.812-12.403 16.683-10.368m25.251 20.759c7.295 4.448 6.356 8.713-4.85 22.009-10.41 12.354-14.313 14.256-19.792 9.645-5.719-4.812-4.919-8.846 3.79-19.115 12.51-14.751 14.883-16.178 20.852-12.539m23.616 19.926c4.324 2.236 5.754 7.761 3.126 12.071-1.761 2.889-14.192 17.576-16.731 19.767-7.337 6.333-18.627-3.907-13.123-11.903 2.735-3.974 16.147-19.155 17.729-20.068 2.249-1.298 6.349-1.237 8.999 0.133m24.286 20.627c7.007 5.143 5.686 8.806-9.308 25.807-7.731 8.766-13.42 9.817-17.812 3.29-3.611-5.366-3.025-6.796 8.197-20.002 9.855-11.598 13.274-13.241 18.923-9.095" fill="#301934" fill-rule="evenodd"/>
</svg>

<svg id="svg" xmlns="http://www.w3.org/2000/svg" xmlns:xlink="http://www.w3.org/1999/xlink" width="400" height="400" viewBox="0, 0, 400,400" version="1.1"><g id="svgg"><path id="path0" d="M48.112 76.931 C 42.456 78.963,42.270 79.351,20.669 134.047 C -6.569 203.015,-6.873 196.138,23.946 208.117 C 41.925 215.106,45.109 215.797,49.306 213.627 L 51.660 212.409 65.946 221.430 L 80.232 230.451 78.705 234.952 C 74.118 248.466,82.859 261.883,97.461 263.742 C 101.038 264.197,101.563 264.488,101.563 266.021 C 101.563 273.912,112.304 283.567,121.104 283.586 L 124.630 283.594 125.595 287.655 C 127.784 296.869,136.462 303.882,145.703 303.903 C 147.884 303.908,148.140 304.224,149.380 308.447 C 152.128 317.797,160.225 323.655,170.414 323.663 C 177.978 323.669,182.201 321.406,188.890 313.760 L 191.451 310.832 196.502 314.437 C 205.999 321.213,214.043 322.869,222.864 319.863 C 229.644 317.553,237.500 308.249,237.500 302.528 C 237.500 300.956,237.765 300.764,239.258 301.258 C 251.259 305.233,265.908 296.490,268.929 283.551 L 269.922 279.297 274.419 279.206 C 285.208 278.988,294.540 271.438,296.743 261.145 C 297.362 258.250,297.426 258.207,300.723 258.422 C 318.241 259.567,328.689 246.070,325.619 226.261 C 325.444 225.130,327.883 223.189,336.139 217.891 L 346.888 210.993 349.725 212.918 C 354.320 216.037,356.903 215.564,376.054 208.096 C 404.649 196.945,404.379 197.616,392.497 167.233 C 383.587 144.449,380.446 140.647,375.020 146.074 C 371.914 149.180,372.188 150.503,380.044 170.348 C 384.175 180.783,387.279 189.588,386.941 189.915 C 386.363 190.476,359.336 201.202,357.211 201.714 C 356.389 201.912,315.913 101.633,316.618 101.146 C 317.687 100.408,347.709 88.870,347.914 89.118 C 348.066 89.302,351.633 98.242,355.839 108.984 C 364.411 130.874,364.631 131.250,368.871 131.250 C 377.093 131.250,376.832 127.664,366.758 102.182 C 354.642 71.537,355.607 71.987,326.647 83.484 C 305.801 91.760,303.916 93.173,303.909 100.530 C 303.906 103.786,303.895 103.798,299.414 105.484 C 280.979 112.419,278.094 112.770,261.526 110.096 C 250.435 108.305,248.671 108.637,246.740 112.874 C 244.282 118.271,247.476 120.559,260.348 122.624 C 277.700 125.408,283.323 124.864,299.723 118.815 C 304.360 117.105,308.288 115.840,308.452 116.004 C 309.225 116.777,341.254 198.834,340.964 199.302 C 339.965 200.919,317.029 214.839,316.196 214.334 C 315.667 214.013,304.395 205.758,291.148 195.991 L 267.061 178.232 255.881 178.685 C 235.047 179.529,220.466 174.061,204.233 159.317 C 196.141 151.967,189.134 150.926,182.949 156.155 C 161.264 174.491,146.778 179.294,134.585 172.190 C 127.989 168.347,128.325 166.865,137.142 160.916 C 149.559 152.537,162.038 142.183,180.165 125.221 C 194.414 111.888,193.831 112.058,214.106 115.313 C 228.298 117.591,230.519 117.176,231.116 112.133 C 231.864 105.809,230.980 105.294,215.050 102.767 C 192.919 99.257,188.714 100.225,175.575 111.858 L 171.447 115.513 166.256 114.074 C 158.529 111.931,149.122 110.981,130.859 110.498 C 112.894 110.023,110.151 109.610,101.758 106.117 L 96.094 103.760 96.094 100.670 C 96.094 93.197,93.953 91.602,72.831 83.334 C 53.408 75.732,52.270 75.437,48.112 76.931 M68.095 95.003 C 76.405 98.270,83.285 101.018,83.385 101.109 C 84.056 101.722,43.660 201.922,42.809 201.756 C 39.472 201.108,12.891 189.964,12.891 189.214 C 12.891 187.770,51.895 89.085,52.470 89.073 C 52.755 89.067,59.786 91.736,68.095 95.003 M103.906 120.511 C 107.524 121.831,111.228 122.181,127.344 122.730 C 146.464 123.381,159.022 124.578,159.791 125.822 C 160.523 127.006,141.663 142.428,128.453 151.446 C 112.825 162.115,113.583 175.851,130.263 184.271 C 146.106 192.269,165.379 187.228,186.654 169.523 C 192.351 164.782,191.420 164.746,197.015 169.926 C 212.237 184.019,228.901 190.602,250.697 191.134 L 263.503 191.447 283.817 206.415 C 310.422 226.018,311.668 227.032,312.961 230.127 C 316.976 239.736,307.160 249.055,298.009 244.323 C 296.730 243.662,289.712 238.522,282.412 232.901 C 270.853 223.999,268.763 222.679,266.211 222.669 C 262.495 222.653,260.152 224.844,260.168 228.320 C 260.185 231.906,260.328 232.059,272.363 241.313 C 286.028 251.822,288.030 256.612,281.574 263.350 C 275.265 269.936,271.963 268.893,253.174 254.380 C 242.392 246.052,239.298 245.010,235.968 248.585 C 231.960 252.886,233.475 255.360,245.921 264.844 C 257.227 273.458,259.320 277.656,255.273 283.602 C 249.068 292.719,244.697 291.925,227.314 278.524 C 216.808 270.425,214.122 269.472,210.895 272.699 C 207.218 276.376,208.854 280.109,216.981 286.583 C 225.673 293.507,226.899 296.077,224.304 301.941 C 220.919 309.594,213.704 310.753,205.273 304.997 C 199.618 301.135,199.342 300.738,201.229 299.171 C 213.261 289.185,203.850 265.871,186.877 263.619 L 182.867 263.087 181.698 259.067 C 179.032 249.896,171.133 243.750,162.011 243.750 C 158.806 243.750,158.593 243.617,158.586 241.602 C 158.555 232.887,147.715 223.438,137.749 223.438 C 135.583 223.438,135.155 223.148,135.149 221.680 C 135.126 216.382,128.205 207.549,121.984 204.877 C 112.806 200.934,104.004 203.753,94.934 213.539 C 89.148 219.781,88.117 220.583,86.920 219.767 C 86.165 219.252,79.295 214.877,71.655 210.044 C 64.014 205.212,57.906 200.887,58.082 200.433 C 59.521 196.723,87.819 124.994,89.445 120.937 L 91.542 115.701 95.576 117.323 C 97.794 118.215,101.543 119.649,103.906 120.511 M116.691 216.702 C 125.768 220.495,124.983 226.019,113.460 239.453 C 102.784 251.899,99.707 253.460,93.944 249.357 C 87.331 244.648,88.485 240.407,100.008 227.070 C 109.453 216.138,111.820 214.667,116.691 216.702 M141.942 237.461 C 149.237 241.909,148.298 246.174,137.092 259.470 C 126.682 271.824,122.779 273.726,117.300 269.115 C 111.581 264.303,112.381 260.269,121.090 250.000 C 133.600 235.249,135.973 233.822,141.942 237.461 M165.558 257.387 C 169.882 259.623,171.312 265.148,168.684 269.458 C 166.923 272.347,154.492 287.034,151.953 289.225 C 144.616 295.558,133.326 285.318,138.830 277.322 C 141.565 273.348,154.977 258.167,156.559 257.254 C 158.808 255.956,162.908 256.017,165.558 257.387 M189.844 278.014 C 196.851 283.157,195.530 286.820,180.536 303.821 C 172.805 312.587,167.116 313.638,162.724 307.111 C 159.113 301.745,159.699 300.315,170.921 287.109 C 180.776 275.511,184.195 273.868,189.844 278.014 " stroke="none" fill="#301934" fill-rule="evenodd"></path></g></svg>
